packages/core/src/svgs/tokens/mono/TKX.svg

<svg width="24" height="24" viewBox="0 0 24 24" fill="none" xmlns="http://www.w3.org/2000/svg">
<path fill-rule="evenodd" clip-rule="evenodd" d="M5.51316 15.9581C4.97533 15.1428 4.63302 14.2142 4.51286 13.2448C4.51286 13.2448 6.63225 13.2261 7.00111 13.2448V10.744H2.09962C2.06212 10.744 2.04336 10.744 2.03711 10.7817C1.99959 11.2943 1.99335 11.7694 2.00585 12.207C2.07192 14.558 2.95808 16.8117 4.51089 18.5781C6.06371 20.3444 8.18536 21.512 10.5085 21.8787C12.8192 22.2275 15.1791 21.7547 17.1771 20.5426C19.1752 19.3305 20.6848 17.456 21.443 15.2455C21.7869 14.2639 21.9745 13.1761 21.9994 11.9882C22.0032 11.7188 21.9886 11.4492 21.9556 11.1817C21.834 9.81683 21.435 8.49111 20.7831 7.28582C20.1312 6.08054 19.2398 5.02107 18.164 4.17234C17.0882 3.32361 15.8504 2.7035 14.5265 2.34998C13.2026 1.99648 11.8204 1.91702 10.4647 2.11648C7.02612 2.64789 4.02521 5.01111 2.75607 8.24959H5.3381C6.14622 6.88839 7.34717 5.80347 8.78319 5.13734C10.2192 4.47122 11.8231 4.25504 13.3843 4.51721C14.4915 4.69539 15.5411 5.13236 16.4478 5.79259C16.454 5.79707 16.4585 5.80377 16.4603 5.81135V5.82385L16.454 5.83635L12.0026 10.2626C11.9985 10.2667 11.9937 10.2699 11.9883 10.2721C11.9829 10.2742 11.9772 10.2753 11.9714 10.2752C11.9655 10.2753 11.9598 10.2742 11.9544 10.2721C11.9492 10.2699 11.9442 10.2667 11.9401 10.2626L10.0646 8.38088L10.0615 8.37611L10.0567 8.37315L10.051 8.37262L10.0458 8.37462L8.35152 10.0626C8.34715 10.0666 8.34373 10.0714 8.34156 10.0768C8.3394 10.0822 8.33853 10.088 8.33902 10.0938C8.33902 10.1001 8.33902 10.1127 8.35152 10.1189L10.2208 11.9757L10.2334 12.0132C10.2334 12.0257 10.2334 12.0382 10.2208 12.0445L8.34527 13.9201C8.33276 13.9263 8.33276 13.9387 8.34527 13.9513L9.98947 15.608C9.9937 15.6121 9.99851 15.6153 10.0039 15.6175C10.0093 15.6195 10.015 15.6207 10.0208 15.6206C10.0275 15.6216 10.0345 15.621 10.041 15.6188C10.0475 15.6166 10.0535 15.613 10.0583 15.608L11.9339 13.7325C11.9385 13.7297 11.9439 13.7282 11.9495 13.7282C11.955 13.7282 11.9604 13.7297 11.9651 13.7325H11.9714L16.3165 18.065C16.323 18.0709 16.3284 18.0782 16.3321 18.0862C16.3357 18.0944 16.3376 18.1031 16.3376 18.112C16.3376 18.1208 16.3357 18.1297 16.3321 18.1377C16.3284 18.1457 16.323 18.153 16.3165 18.1588C14.9422 19.1164 13.3023 19.6192 11.6275 19.5967C10.202 19.5467 8.88918 19.1279 7.68882 18.3213C7.2629 18.0426 6.87603 17.7084 6.53847 17.3273C6.16584 16.8949 5.82326 16.4375 5.51316 15.9581ZM18.1795 16.4208C19.2932 14.9148 19.7959 13.0431 19.5862 11.1817C19.4552 9.86861 18.9665 8.61656 18.1732 7.56188C18.1612 7.55701 18.1478 7.55701 18.1357 7.56188C18.1291 7.5627 18.1227 7.56481 18.117 7.56813L13.7344 11.957C13.7257 11.9662 13.7207 11.9786 13.7207 11.9913C13.7207 12.0041 13.7257 12.0165 13.7344 12.0257L18.1294 16.4271C18.1348 16.4311 18.1415 16.4332 18.1482 16.4332C18.155 16.4332 18.1615 16.4311 18.1671 16.4271H18.1795V16.4208Z" fill="white"/>
</svg>

<svg xmlns="http://www.w3.org/2000/svg" width="24" height="24" fill="none" viewBox="0 0 24 24">
    <path fill="#fff" fill-rule="evenodd" d="M5.513 15.958a6.35 6.35 0 0 1-1-2.713s2.12-.019 2.488 0v-2.501H2.1c-.038 0-.057 0-.063.038-.037.512-.044.987-.031 1.425a10.08 10.08 0 0 0 8.503 9.672 9.984 9.984 0 0 0 10.934-6.634q.517-1.473.556-3.257.006-.405-.043-.806a10.067 10.067 0 0 0-11.491-9.066c-3.439.532-6.44 2.895-7.709 6.134h2.582a7.85 7.85 0 0 1 8.046-3.733 7.1 7.1 0 0 1 3.064 1.276q.009.006.012.018v.013l-.006.012-4.451 4.427a.04.04 0 0 1-.032.012l-.017-.003-.014-.01-1.875-1.881-.003-.005-.005-.003h-.006l-.005.002-1.694 1.688-.01.014-.003.017c0 .006 0 .019.013.025l1.869 1.857.012.037c0 .013 0 .025-.012.031L8.345 13.92q-.018.011 0 .031l1.644 1.657.015.01.017.003a.04.04 0 0 0 .037-.013l1.876-1.876a.03.03 0 0 1 .031 0h.006l4.346 4.333a.064.064 0 0 1 .016.073l-.017.02a8 8 0 0 1-4.688 1.439 7.4 7.4 0 0 1-3.94-1.276 5.7 5.7 0 0 1-1.15-.994q-.559-.65-1.025-1.369m12.667.463a7.42 7.42 0 0 0 1.406-5.24 7.2 7.2 0 0 0-1.413-3.62.05.05 0 0 0-.037 0l-.019.007-4.383 4.389a.05.05 0 0 0 0 .069l4.395 4.401a.03.03 0 0 0 .038 0h.012z" clip-rule="evenodd"/>
</svg>
